X: 14845
T: Garrett Barry's
R: jig
M: 6/8
K: Gmajor
|:A,B,C|DEF ~G3|AGE c2A|dcA d2e|fed cAG|
~=F3 GFG|AGE B/c/de|dcA GEc|DED:|D3|
|:dcA d2e|fed (3efg e|dcA c2d|e=fd ecA|
dcA d2e|1 fed e/f/ge|dcA GEc|DED D2 A
:|2 =fdA Gce|dcA GEc|DED A,B,C||

